packages/axiom-materials/src/icon_svgs/benchmark.svg

<svg height="16" viewBox="0 0 16 16" width="16" xmlns="http://www.w3.org/2000/svg"><path d="m9.5 12.5c-1.122 0-2.09-.626-2.604-1.54 2.164-.192 3.872-1.9 4.064-4.064.914.514 1.54 1.482 1.54 2.604 0 1.654-1.346 3-3 3m0-6c0 1.654-1.346 3-3 3 0-1.654 1.346-3 3-3m-6 0c0-1.654 1.346-3 3-3 1.122 0 2.09.626 2.604 1.54-2.164.192-3.872 1.9-4.064 4.064-.914-.514-1.54-1.482-1.54-2.604m7.29-1.29c-.558-1.852-2.256-3.21-4.29-3.21-2.485 0-4.5 2.015-4.5 4.5 0 2.034 1.358 3.732 3.21 4.29.558 1.852 2.256 3.21 4.29 3.21 2.485 0 4.5-2.015 4.5-4.5 0-2.034-1.358-3.732-3.21-4.29" fill-rule="evenodd"/></svg>

<?xml version="1.0" encoding="UTF-8"?>
<svg width="16px" height="16px" viewBox="0 0 16 16" version="1.1" xmlns="http://www.w3.org/2000/svg" xmlns:xlink="http://www.w3.org/1999/xlink">
    <!-- Generator: sketchtool 43.2 (39069) - http://www.bohemiancoding.com/sketch -->
    <title>benchmark</title>
    <desc>Created with sketchtool.</desc>
    <defs></defs>
    <g id="Page-1" stroke="none" stroke-width="1" fill="none" fill-rule="evenodd">
        <g id="benchmark" fill="#000000">
            <path d="M9.5,12.5 C8.378,12.5 7.41,11.874 6.896,10.96 C9.06,10.768 10.768,9.06 10.96,6.896 C11.874,7.41 12.5,8.378 12.5,9.5 C12.5,11.154 11.154,12.5 9.5,12.5 M9.5,6.5 C9.5,8.154 8.154,9.5 6.5,9.5 C6.5,7.846 7.846,6.5 9.5,6.5 M3.5,6.5 C3.5,4.846 4.846,3.5 6.5,3.5 C7.622,3.5 8.59,4.126 9.104,5.04 C6.94,5.232 5.232,6.94 5.04,9.104 C4.126,8.59 3.5,7.622 3.5,6.5 M10.79,5.21 C10.232,3.358 8.534,2 6.5,2 C4.015,2 2,4.015 2,6.5 C2,8.534 3.358,10.232 5.21,10.79 C5.768,12.642 7.466,14 9.5,14 C11.985,14 14,11.985 14,9.5 C14,7.466 12.642,5.768 10.79,5.21"></path>
        </g>
    </g>
</svg>
